src/pos-icons/alarm-note.svg

<svg height="24" viewBox="0 0 24 24" width="24" xmlns="http://www.w3.org/2000/svg"><path d="m17.4 1.86-1.29 1.53 4.6 3.86 1.29-1.53zm-10.8 0-4.6 3.85 1.29 1.53 4.59-3.85zm5.4 2.14a9 9 0 0 0 -9 9 9 9 0 0 0 9 9c.33 0 .67 0 1-.06v-2c-.33.06-.67.06-1 .06a7 7 0 0 1 -7-7 7 7 0 0 1 7-7c3.1 0 5.83 2.03 6.71 5h2.07c-.93-4.1-4.58-7-8.78-7m11 11h-3v5.5a2.5 2.5 0 0 1 -2.5 2.5 2.5 2.5 0 0 1 -2.5-2.5 2.5 2.5 0 0 1 2.5-2.5c.54 0 1.07.18 1.5.5v-5.5h4zm-11.5-7v5.25l-4 2.37.75 1.23 4.75-2.85v-6z"/></svg>

<?xml version="1.0" encoding="UTF-8"?><!DOCTYPE svg PUBLIC "-//W3C//DTD SVG 1.1//EN" "http://www.w3.org/Graphics/SVG/1.1/DTD/svg11.dtd"><svg xmlns="http://www.w3.org/2000/svg" xmlns:xlink="http://www.w3.org/1999/xlink" version="1.1" id="mdi-alarm-note" width="24" height="24" viewBox="0 0 24 24"><path d="M17.4,1.86L16.11,3.39L20.71,7.25L22,5.72L17.4,1.86M6.6,1.86L2,5.71L3.29,7.24L7.88,3.39L6.6,1.86M12,4A9,9 0 0,0 3,13A9,9 0 0,0 12,22C12.33,22 12.67,22 13,21.94V19.94C12.67,20 12.33,20 12,20A7,7 0 0,1 5,13A7,7 0 0,1 12,6C15.1,6 17.83,8.03 18.71,11H20.78C19.85,6.9 16.2,4 12,4M23,15H20V20.5A2.5,2.5 0 0,1 17.5,23A2.5,2.5 0 0,1 15,20.5A2.5,2.5 0 0,1 17.5,18C18.04,18 18.57,18.18 19,18.5V13H23V15M11.5,8V13.25L7.5,15.62L8.25,16.85L13,14V8H11.5Z" /></svg>
